X:1
T:Title
%%score { ( 1 3 ) | 2 }
L:1/8
M:4/4
K:Ab
V:1 treble nm="Grand Piano"
V:3 treble 
V:2 bass 
V:1
 z4 z2[Q:1/4=100] [CE]>[CA] | [Ec]>[Ec] [=D_c]>[Dc] [E=c]2 [_GB]>[Gc] | %2
 [Fd]>[Fc] [FB]>[FA] F2 F>F | [CE]>[CE] [CA]>[DB] [Ec]>[CA] [DB]>[Ec] | [EB]6 [CA]>[DB] | %5
 [Ec]>[Ec] [=D_c]>[Dc] [E=c]2 [EB]>[EA] | [FB]>[FA] [FA]>[DF] [FA]2 [FA]>[FB] | c>c c>A B2 G2 | %8
[M:3/4] [CA]6 |[M:1/4] c>d |[M:4/4] e6 z2 | B6 z2 | B2 z2 z4 | c6 z2 | %14
 [Ec]>[DB] [CA]>[DB] [Ec]2 [EB]>[EA] |[M:9/8] [FB]>[FB][FB]- [FB]/[Fc]/ [Fd]2- [Fd]F>F | %16
[M:4/4] E>E c>c c2 B2 |[M:3/4] [CA]6 |] %18
V:2
 z4 z2 [A,,A,]>[A,,A,] | [A,,A,]>[A,,A,] [A,,A,]>[A,,A,] [A,,A,]2 [A,,A,]>[A,,A,] | %2
 [D,A,]>[D,A,] [D,A,]>[D,A,] [D,A,D]2 [D,A,D]>[D,A,D] | %3
 [A,,A,]>[A,,A,] [A,,A,]>[A,,A,] [A,,A,]>[A,,A,] [A,,A,]>[A,,A,] | [E,G,]6 [A,,A,]>[A,,A,] | %5
 [A,,A,]>[A,,A,] [A,,A,]>[A,,A,] [A,,A,]2 [B,,G,]>[C,A,] | %6
 [D,A,]>[D,A,] [D,A,]>[D,A,] [D,D]2 [D,A,]>[D,A,] | %7
 [E,A,E]>[E,A,E] [E,A,E]>[E,A,C] [E,G,D]2 [E,B,D]2 |[M:3/4] [A,,A,]6 |[M:1/4] [A,E]>[A,B,E] | %10
[M:4/4] [A,CE]>[A,C] [A,C]>[A,C] [A,C]2 [A,DE]>[A,CE] | %11
 [E,E]>[E,E] [E,E]>[E,E] [E,E]2 [E,E]>[E,E] | [E,E]>E, E,>E, E,>[K:treble]B[K:bass] [E,E]>[E,E] | %13
 [A,EA]>[A,E] [A,E]>[A,E] A,2[K:bass] [A,,A,]>[A,,A,] | %14
 [A,,A,]>[A,,A,] [A,,E,]>[A,,E,] [A,,A,]2 [B,,G,]>[C,A,] | %15
[M:9/8] [D,A,]>[D,A,][D,B,]- [D,B,]/[C,=A,]/ [B,,B,]2- [B,,B,][D,_A,D]>[D,A,D] | %16
[M:4/4] [E,A,C]>[E,A,C] [E,A,E]>[E,A,E] [E,A,E]2 [E,G,D]2 |[M:3/4] [A,,A,]6 |] %18
V:3
 x8 | x8 | x8 | x8 | x8 | x8 | x8 | x8 |[M:3/4] x6 |[M:1/4] x2 |[M:4/4] z z/ E/ A>A E>c B>A | %11
 G>G G>G G2 [GB]>[Ac] | d->[EBd-] [FAd-]>[FAd-] [EGd]2 [Ge]>[Bd] | z z/ A/ G>F E2 [CA]>[DB] | x8 | %15
[M:9/8] x9 |[M:4/4] x8 |[M:3/4] x6 |] %18

